svgs/sharp-light/tally-3.svg

<svg xmlns="http://www.w3.org/2000/svg" viewBox="0 0 640 512"><!--! Font Awesome Pro 6.6.0 by @fontawesome - https://fontawesome.com License - https://fontawesome.com/license (Commercial License) Copyright 2024 Fonticons, Inc. --><path d="M144 32l0 16 0 416 0 16-32 0 0-16 0-416 0-16 32 0zm128 0l0 16 0 416 0 16-32 0 0-16 0-416 0-16 32 0zM400 48l0 416 0 16-32 0 0-16 0-416 0-16 32 0 0 16z"/></svg>

<svg xmlns="http://www.w3.org/2000/svg" viewBox="0 0 640 512"><!--! Font Awesome Pro 6.4.0 by @fontawesome - https://fontawesome.com License - https://fontawesome.com/license (Commercial License) Copyright 2023 Fonticons, Inc. --><path d="M144 32V48 464v16H112V464 48 32h32zm128 0V48 464v16H240V464 48 32h32zM400 48V464v16H368V464 48 32h32V48z"/></svg>
